svg/u1f6dd.svg

<svg viewBox="0 0 128 128" xmlns="http://www.w3.org/2000/svg" xmlns:xlink="http://www.w3.org/1999/xlink">
  <g>
    <path d="M49.24,24.95l1.7-8.53c1.13-5.59,1.8-9.5,4.9-11.32c2.04-1.19,4.35-1.42,6.69-0.66 c5.91,1.91,6.42,13.03,7,27.86l-4.34-3.14c-0.3-10.78-0.4-19.57-3.95-20.72c-1.21-0.39-2.28-0.29-3.28,0.29 c-2.01,1.18-2.03,4.2-2.9,8.52l-1.7,8.52L49.24,24.95z" fill="#78909C"/>
    <path d="M116.92,115.53c0,0-0.33,1.06-2.1,1.06s-2.1-1.06-2.1-1.06v-11.55l4.2,2.09V115.53z" fill="#78909C"/>
    <path d="M64.74,113.86c0,0-0.55,1.24-2.1,1.24s-2.1-1.24-2.1-1.24V94.01l4.2,5.88V113.86z" fill="#78909C"/>
    <path d="M89.84,113.55l28.06-7.03c0,0-0.78-2.15-2.21-2.55l-28.93,7.57L89.84,113.55z" fill="#82AEC0"/>
    <path d="M87.49,122.94c0,0-0.33,1.06-2.1,1.06c-1.77,0-2.1-1.06-2.1-1.06v-11.02l4.2,2.09V122.94z" fill="#78909C"/>
    <path d="M119.23,106.15l-0.33-8.49c0-1.99-1.08-3-2.33-3.71c-1.25-0.71-4.04-1.4-4.04-1.4 c-8.35-2.89-12.76-7.83-15.66-16.48c-2.21-6.59-10.53-29.47-15.37-41.51c-2.35-5.86-6.52-10.19-11.75-12.21 c-4-1.54-14.15-3.07-15.28-3.31l-4.12,0.33l-1.59,7.98c3.98,0.82,15.06,3.05,17.52,4c2.7,1.04,4.92,3.46,6.27,6.8 c4.78,11.9,13,34.48,15.17,40.98c3.94,11.76,11.76,19.33,23.29,22.51l5.02,1.82l0.08,3.57L119.23,106.15z" fill="#82AEC0"/>
    <path d="M116.77,98.63c-0.1-1.9-1.39-3.53-3.22-4.06l-2.95-1c-8.35-2.89-12.76-7.78-15.66-16.43 c-2.21-6.59-10.53-29.47-15.37-41.51c-2.35-5.86-6.52-10.19-11.75-12.21c-4-1.54-16.34-3.82-17.48-4.06l-1.82,9.16 c3.98,0.82,13.37,2.95,15.83,3.89c2.7,1.04,4.92,3.46,6.27,6.8c4.78,11.9,13,34.48,15.17,40.98c3.94,11.76,11.76,19.33,23.29,22.51 l7.83,1.27L116.77,98.63z" fill="#2F7889"/>
    <g>
      <path d="M60.54,94.01v6.48c1.24,1.95,2.64,3.71,4.2,5.3v-5.9L60.54,94.01z" fill="#546E7A"/>
      <polygon fill="#546E7A" points="83.29,111.92 83.29,115.28 87.49,116.34 87.49,114.02 "/>
    </g>
    <path d="M73.72,105.52c0.22-0.33,21.96-6.37,21.96-6.37c1.29-0.3,2.63-0.13,3.8,0.5 c1.66,0.89,5.09,2.04,9.25,3.29c0.69,0.21,0.67,1.19-0.02,1.38l-22.72,6.45L73.72,105.52z" fill="#B9E4EA"/>
    <path d="M41.23,86.23c0,0-0.24,0.98-1.92,1.1c-1.91,0.14-2.4-0.88-2.25-1.64l11.4-58.14l4.12,0.82 L41.23,86.23z" fill="#78909C"/>
    <g>
      <path d="M46.96,39.69L20.3,46.32l-0.59,2.98l26.53-6.6c0,0,1.65-0.25,1.85-1.52 C48.26,40.05,47.56,39.52,46.96,39.69z" fill="#78909C"/>
      <path d="M44.72,51.66l-26.78,6.66l-0.59,2.98l26.65-6.63c0,0,1.65-0.25,1.85-1.52 C46.03,52.02,45.32,51.5,44.72,51.66z" fill="#78909C"/>
      <path d="M42.49,63.63l-26.9,6.68L15,73.29l26.77-6.66c0,0,1.65-0.25,1.85-1.52 C43.79,63.99,43.09,63.47,42.49,63.63z" fill="#78909C"/>
      <path d="M40.25,75.6l-27.03,6.71l-0.59,2.98l26.9-6.68c0,0,1.65-0.25,1.85-1.52 C41.56,75.97,40.85,75.44,40.25,75.6z" fill="#78909C"/>
    </g>
    <path d="M46.04,39.92l-17.5,4.41c1.43,0.38,2.63,0.73,3.35,1.01c0.52,0.2,1.04,0.4,1.54,0.6l12.02-3.05 l-1.77,9.03l-4.09,1.02c0.31,0.83,0.63,1.69,0.96,2.59l2.54-0.64l-0.83,4.28c0.89,2.44,1.82,5.05,2.76,7.72l7.55-38.51l-4.12-0.82 L46.04,39.92z" fill="#546E7A"/>
    <path d="M87.5,111.65c0,0-9.71,0.37-18.28-8.2c-9.87-9.87-26.48-58.15-31.39-60.92 c-7.69-4.34-14.32-8.7-14.32-8.7l24.69-6.28c0,0,10.45,1.55,16.42,4.07c1.49,0.63,4.37,2.02,6.87,8.44 c4.11,10.58,10.03,28.12,15.23,40.16c3,6.95,5.48,11.39,7.98,13.32c11.12,8.56,22.06,10.44,22.06,10.44L87.5,111.65z" fill="#94D1E0"/>
    <path d="M97.13,95.33c-0.35-0.26-1.93-1.51-2.28-1.78c-2.5-1.92-4.97-6.37-7.98-13.32 c-5.2-12.03-11.12-29.58-15.23-40.16c-0.72-1.86-1.61-3.25-2.36-4.37l-25.04,6.34l22.46,58.08c0.7,1.02,1.37,1.9,2.03,2.64 L97.13,95.33z" fill="#66B7C4"/>
    <path d="M90.14,113.44l-0.32-8.49c-0.06-1.71-1.28-3.17-2.95-3.54l-2.28-0.51 c-8.31-2.29-13.76-6.64-16.66-15.29c-2.21-6.6-10.53-29.48-15.37-41.51c-2.35-5.86-6.52-10.19-11.75-12.21 c-4-1.54-14-3.62-15.25-3.88l-3.37,0.52l0.33,8.69c4.43,0.92,12.37,2.72,14.82,3.67c2.7,1.04,4.92,3.46,6.27,6.8 c4.78,11.89,13,34.47,15.17,40.98c3.94,11.76,11.76,19.33,23.29,22.5l5.39,0.86l0.08,2.17L90.14,113.44z" fill="#B0F2F7"/>
    <path d="M87.25,107.27c-0.08-1.96-1.43-3.65-3.33-4.15l-1.62-0.43c-8.31-2.29-13.76-7.61-16.66-16.26 c-2.21-6.6-10.53-29.48-15.37-41.51c-2.35-5.86-6.52-10.19-11.75-12.21c-4-1.54-15.08-3.86-16.34-4.12l-1.96,9.44 c4.43,0.92,12.37,2.72,14.82,3.67c2.7,1.04,5.28,1.95,6.05,3.91c4.72,11.91,13.21,37.37,15.39,43.87 c3.94,11.76,11.76,19.33,23.29,22.5l7.76,2.2L87.25,107.27z" fill="#94D1E0"/>
    <path d="M12.98,93.47c0,0-0.28,1.07-2.13,1.2c-0.55,0.04-0.98-0.05-1.3-0.19c-0.58-0.24-0.87-0.9-0.75-1.51 l13.17-67.41c1.13-5.59,1.8-9.5,4.9-11.32c2.04-1.19,4.35-1.42,6.69-0.66c6.16,1.99,6.6,16.53,7.23,32.41c0,0-1.51,0.37-2.69-0.23 s-1.19-1.89-1.19-1.89c-0.49-11.84-0.53-24.96-4.64-26.29c-1.21-0.39-2.28-0.29-3.28,0.29c-2.01,1.18-2.03,4.2-2.9,8.52 L12.98,93.47z" fill="#78909C"/>
    <polygon fill="#546E7A" points="112.79,107.81 112.79,109.66 116.92,108.77 116.92,106.8 "/>
    <path d="M25.45,18.79c-0.48-0.24-0.48-1.01-0.24-1.47c0.86-1.63,2.6-2.68,4.43-2.86 c0.9-0.09,1.05,0.1,1.17,0.43c0.17,0.48-0.35,0.82-0.85,0.95c-1.47,0.41-2.55,1.28-3.1,2.35C26.49,18.92,25.93,19.03,25.45,18.79z" fill="#CFD8DC"/>
  </g>
</svg>

<svg viewBox="0 0 128 128" xmlns="http://www.w3.org/2000/svg">
  <defs/>
  <path d="M49.24,24.95 L50.94,16.42 C52.07,10.83 52.74,6.92 55.84,5.1 C57.88,3.91 60.19,3.68 62.53,4.44 C68.44,6.35 68.95,17.47 69.53,32.3 L65.19,29.16 C64.89,18.38 64.79,9.59 61.24,8.44 C60.03,8.05 58.96,8.15 57.96,8.73 C55.95,9.91 55.93,12.93 55.06,17.25 L53.36,25.77 L49.24,24.95 Z" fill="#78909C"/>
  <path d="M116.92,115.53 C116.92,115.53 116.59,116.59 114.82,116.59 C113.05,116.59 112.72,115.53 112.72,115.53 L112.72,103.98 L116.92,106.07 L116.92,115.53 Z" fill="#78909C"/>
  <path d="M64.74,113.86 C64.74,113.86 64.19,115.1 62.64,115.1 C61.09,115.1 60.54,113.86 60.54,113.86 L60.54,94.01 L64.74,99.89 L64.74,113.86 Z" fill="#78909C"/>
  <path d="M89.84,113.55 L117.9,106.52 C117.9,106.52 117.12,104.37 115.69,103.97 L86.76,111.54 L89.84,113.55 Z" fill="#82AEC0"/>
  <path d="M87.49,122.94 C87.49,122.94 87.16,124 85.39,124 C83.62,124 83.29,122.94 83.29,122.94 L83.29,111.92 L87.49,114.01 L87.49,122.94 Z" fill="#78909C"/>
  <path d="M119.23,106.15 L118.9,97.66 C118.9,95.67 117.82,94.66 116.57,93.95 C115.32,93.24 112.53,92.55 112.53,92.55 C104.18,89.66 99.77,84.72 96.87,76.07 C94.66,69.48 86.34,46.6 81.5,34.56 C79.15,28.7 74.98,24.37 69.75,22.35 C65.75,20.81 55.6,19.28 54.47,19.04 L50.35,19.37 L48.76,27.35 C52.74,28.17 63.82,30.4 66.28,31.35 C68.98,32.39 71.2,34.81 72.55,38.15 C77.33,50.05 85.55,72.63 87.72,79.13 C91.66,90.89 99.48,98.46 111.01,101.64 L116.03,103.46 L116.11,107.03 L119.23,106.15 Z" fill="#82AEC0"/>
  <path d="M116.77,98.63 C116.67,96.73 115.38,95.1 113.55,94.57 L110.6,93.57 C102.25,90.68 97.84,85.79 94.94,77.14 C92.73,70.55 84.41,47.67 79.57,35.63 C77.22,29.77 73.05,25.44 67.82,23.42 C63.82,21.88 51.48,19.6 50.34,19.36 L48.52,28.52 C52.5,29.34 61.89,31.47 64.35,32.41 C67.05,33.45 69.27,35.87 70.62,39.21 C75.4,51.11 83.62,73.69 85.79,80.19 C89.73,91.95 97.55,99.52 109.08,102.7 L116.91,103.97 L116.77,98.63 Z" fill="#2F7889"/>
  <path d="M60.54,94.01 L60.54,100.49 C61.78,102.44 63.18,104.2 64.74,105.79 L64.74,99.89 L60.54,94.01 Z" fill="#546E7A"/>
  <path d="M83.29,111.92 L83.29,115.28 L87.49,116.34 L87.49,114.02 Z" fill="#546E7A"/>
  <path d="M73.72,105.52 C73.94,105.19 95.68,99.15 95.68,99.15 C96.97,98.85 98.31,99.02 99.48,99.65 C101.14,100.54 104.57,101.69 108.73,102.94 C109.42,103.15 109.4,104.13 108.71,104.32 L85.99,110.77 L73.72,105.52 Z" fill="#B9E4EA"/>
  <path d="M41.23,86.23 C41.23,86.23 40.99,87.21 39.31,87.33 C37.4,87.47 36.91,86.45 37.06,85.69 L48.46,27.55 L52.58,28.37 L41.23,86.23 Z" fill="#78909C"/>
  <path d="M46.96,39.69 L20.3,46.32 L19.71,49.3 L46.24,42.7 C46.24,42.7 47.89,42.45 48.09,41.18 C48.26,40.05 47.56,39.52 46.96,39.69 Z" fill="#78909C"/>
  <path d="M44.72,51.66 L17.94,58.32 L17.35,61.3 L44,54.67 C44,54.67 45.65,54.42 45.85,53.15 C46.03,52.02 45.32,51.5 44.72,51.66 Z" fill="#78909C"/>
  <path d="M42.49,63.63 L15.59,70.31 L15,73.29 L41.77,66.63 C41.77,66.63 43.42,66.38 43.62,65.11 C43.79,63.99 43.09,63.47 42.49,63.63 Z" fill="#78909C"/>
  <path d="M40.25,75.6 L13.22,82.31 L12.63,85.29 L39.53,78.61 C39.53,78.61 41.18,78.36 41.38,77.09 C41.56,75.97 40.85,75.44 40.25,75.6 Z" fill="#78909C"/>
  <path d="M46.04,39.92 L28.54,44.33 C29.97,44.71 31.17,45.06 31.89,45.34 C32.41,45.54 32.93,45.74 33.43,45.94 L45.45,42.89 L43.68,51.92 L39.59,52.94 C39.9,53.77 40.22,54.63 40.55,55.53 L43.09,54.89 L42.26,59.17 C43.15,61.61 44.08,64.22 45.02,66.89 L52.57,28.38 L48.45,27.56 L46.04,39.92 Z" fill="#546E7A"/>
  <path d="M87.5,111.65 C87.5,111.65 77.79,112.02 69.22,103.45 C59.35,93.58 42.74,45.3 37.83,42.53 C30.14,38.19 23.51,33.83 23.51,33.83 L48.2,27.55 C48.2,27.55 58.65,29.1 64.62,31.62 C66.11,32.25 68.99,33.64 71.49,40.06 C75.6,50.64 81.52,68.18 86.72,80.22 C89.72,87.17 92.2,91.61 94.7,93.54 C105.82,102.1 116.76,103.98 116.76,103.98 L87.5,111.65 Z" fill="#94D1E0"/>
  <path d="M97.13,95.33 C96.78,95.07 95.2,93.82 94.85,93.55 C92.35,91.63 89.88,87.18 86.87,80.23 C81.67,68.2 75.75,50.65 71.64,40.07 C70.92,38.21 70.03,36.82 69.28,35.7 L44.24,42.04 L66.7,100.12 C67.4,101.14 68.07,102.02 68.73,102.76 L97.13,95.33 Z" fill="#66B7C4"/>
  <path d="M90.14,113.44 L89.82,104.95 C89.76,103.24 88.54,101.78 86.87,101.41 L84.59,100.9 C76.28,98.61 70.83,94.26 67.93,85.61 C65.72,79.01 57.4,56.13 52.56,44.1 C50.21,38.24 46.04,33.91 40.81,31.89 C36.81,30.35 26.81,28.27 25.56,28.01 L22.19,28.53 L22.52,37.22 C26.95,38.14 34.89,39.94 37.34,40.89 C40.04,41.93 42.26,44.35 43.61,47.69 C48.39,59.58 56.61,82.16 58.78,88.67 C62.72,100.43 70.54,108 82.07,111.17 L87.46,112.03 L87.54,114.2 L90.14,113.44 Z" fill="#B0F2F7"/>
  <path d="M87.25,107.27 C87.17,105.31 85.82,103.62 83.92,103.12 L82.3,102.69 C73.99,100.4 68.54,95.08 65.64,86.43 C63.43,79.83 55.11,56.95 50.27,44.92 C47.92,39.06 43.75,34.73 38.52,32.71 C34.52,31.17 23.44,28.85 22.18,28.59 L20.22,38.03 C24.65,38.95 32.59,40.75 35.04,41.7 C37.74,42.74 40.32,43.65 41.09,45.61 C45.81,57.52 54.3,82.98 56.48,89.48 C60.42,101.24 68.24,108.81 79.77,111.98 L87.53,114.18 L87.25,107.27 Z" fill="#94D1E0"/>
  <path d="M12.98,93.47 C12.98,93.47 12.7,94.54 10.85,94.67 C10.3,94.71 9.87,94.62 9.55,94.48 C8.97,94.24 8.68,93.58 8.8,92.97 L21.97,25.56 C23.1,19.97 23.77,16.06 26.87,14.24 C28.91,13.05 31.22,12.82 33.56,13.58 C39.72,15.57 40.16,30.11 40.79,45.99 C40.79,45.99 39.28,46.36 38.1,45.76 C36.92,45.16 36.91,43.87 36.91,43.87 C36.42,32.03 36.38,18.91 32.27,17.58 C31.06,17.19 29.99,17.29 28.99,17.87 C26.98,19.05 26.96,22.07 26.09,26.39 L12.98,93.47 Z" fill="#78909C"/>
  <path d="M112.79,107.81 L112.79,109.66 L116.92,108.77 L116.92,106.8 Z" fill="#546E7A"/>
  <path d="M25.45,18.79 C24.97,18.55 24.97,17.78 25.21,17.32 C26.07,15.69 27.81,14.64 29.64,14.46 C30.54,14.37 30.69,14.56 30.81,14.89 C30.98,15.37 30.46,15.71 29.96,15.84 C28.49,16.25 27.41,17.12 26.86,18.19 C26.49,18.92 25.93,19.03 25.45,18.79 Z" fill="#CFD8DC"/>
</svg>
